static/img/logos/cd.svg

<?xml version="1.0" encoding="UTF-8" standalone="no"?>
<svg
   width="56"
   height="36"
   viewBox="0 0 56 36"
   fill="none"
   version="1.1"
   id="svg11"
   sodipodi:docname="cd.svg"
   inkscape:version="1.3.2 (091e20ef0f, 2023-11-25, custom)"
   xmlns:inkscape="http://www.inkscape.org/namespaces/inkscape"
   xmlns:sodipodi="http://sodipodi.sourceforge.net/DTD/sodipodi-0.dtd"
   xmlns="http://www.w3.org/2000/svg"
   xmlns:svg="http://www.w3.org/2000/svg">
  <sodipodi:namedview
     id="namedview11"
     pagecolor="#505050"
     bordercolor="#ffffff"
     borderopacity="1"
     inkscape:showpageshadow="0"
     inkscape:pageopacity="0"
     inkscape:pagecheckerboard="1"
     inkscape:deskcolor="#d1d1d1"
     showgrid="false"
     inkscape:zoom="14.515493"
     inkscape:cx="13.675044"
     inkscape:cy="37.408305"
     inkscape:window-width="1896"
     inkscape:window-height="1035"
     inkscape:window-x="10"
     inkscape:window-y="31"
     inkscape:window-maximized="1"
     inkscape:current-layer="g4" />
  <g
     clip-path="url(#clip0_547_122)"
     id="g4">
    <path
       d="M -8.91e-5,27.09563 0.0609131,9.7691 l 9.3332478,4.60803 -0.06092,8.0489 5.6731701,3.1337 -1.7691,3.2564 -8.4183101,-3.0721 3.35512,5.3454 z"
       fill="url(#paint0_linear_547_122)"
       id="path1"
       sodipodi:nodetypes="ccccccccc" />
    <path
       d="M18.0566 35.7591L8.17421 31.0895L4.81909 25.7441L13.2374 28.8162L15.0065 25.5598L18.0566 26.9729L28.1219 22.119L30.196 23.2864L31.477 27.2187L28.0609 31.4581L18.0566 35.7591Z"
       fill="url(#paint1_linear_547_122)"
       id="path2" />
    <path
       fill-rule="evenodd"
       clip-rule="evenodd"
       d="M29.5252 3.80932L37.7605 -6.10352e-05L56.0002 9.46195V27.0957L52.889 28.5089L46.5448 22.1804V13.7629L37.5775 9.40051L35.8084 10.1993L29.5252 3.80932ZM28.0612 5.03815L18.2398 0.491472L10.6755 4.42374L14.5797 9.21619L17.9348 9.89204L28.1832 14.3158L28.0612 5.03815Z"
       fill="url(#paint2_linear_547_122)"
       id="path3" />
    <path
       fill-rule="evenodd"
       clip-rule="evenodd"
       d="m 29.464,13.0255 0.061,-9.21623 6.2832,6.38993 z M 0.0609131,9.7691 10.6753,4.42368 14.5794,9.21613 17.9346,9.89199 9.39425,14.3772 Z M 30.196,23.2863 l 7.8693,3.6865 8.4793,-4.7925 6.3442,6.3285 -14.9455,7.1887 -9.8824,-4.2395 3.4161,-4.2395 z"
       fill="url(#paint3_linear_547_122)"
       id="path4"
       style="display:inline" />
  </g>
  <defs
     id="defs11">
    <inkscape:path-effect
       effect="powerclip"
       id="path-effect27"
       is_visible="true"
       lpeversion="1"
       inverse="true"
       flatten="false"
       hide_clip="false"
       message="Use fill-rule evenodd on &lt;b&gt;fill and stroke&lt;/b&gt; dialog if no flatten result after convert clip to paths." />
    <inkscape:path-effect
       effect="powerclip"
       id="path-effect26"
       is_visible="true"
       lpeversion="1"
       inverse="true"
       flatten="false"
       hide_clip="false"
       message="Use fill-rule evenodd on &lt;b&gt;fill and stroke&lt;/b&gt; dialog if no flatten result after convert clip to paths." />
    <linearGradient
       id="paint0_linear_547_122"
       x1="7.50327"
       y1="9.76917"
       x2="7.50327"
       y2="31.0894"
       gradientUnits="userSpaceOnUse">
      <stop
         stop-color="#062455"
         id="stop4" />
      <stop
         offset="1"
         stop-color="#062455"
         id="stop5" />
    </linearGradient>
    <linearGradient
       id="paint1_linear_547_122"
       x1="18.1481"
       y1="22.119"
       x2="18.1481"
       y2="35.7591"
       gradientUnits="userSpaceOnUse">
      <stop
         stop-color="#0D5EB1"
         id="stop6" />
      <stop
         offset="1"
         stop-color="#0D5EB1"
         id="stop7" />
    </linearGradient>
    <linearGradient
       id="paint2_linear_547_122"
       x1="33.3378"
       y1="-6.10352e-05"
       x2="33.3378"
       y2="28.5089"
       gradientUnits="userSpaceOnUse">
      <stop
         stop-color="#D93F64"
         id="stop8" />
      <stop
         offset="1"
         stop-color="#D93F64"
         id="stop9" />
    </linearGradient>
    <linearGradient
       id="paint3_linear_547_122"
       x1="26.4749"
       y1="3.80927"
       x2="26.4749"
       y2="35.6975"
       gradientUnits="userSpaceOnUse">
      <stop
         stop-color="#7E2B6C"
         id="stop10" />
      <stop
         offset="1"
         stop-color="#7E2B6C"
         id="stop11" />
    </linearGradient>
    <clipPath
       id="clip0_547_122">
      <rect
         width="56"
         height="35.759"
         fill="white"
         id="rect11" />
    </clipPath>
    <clipPath
       clipPathUnits="userSpaceOnUse"
       id="clipPath25">
      <path
         id="lpe_path-effect26"
         style="fill:#0d5eb1;fill-opacity:1;stroke:none;stroke-width:3.88035;stroke-linecap:butt;stroke-linejoin:miter;stroke-dasharray:none;stroke-opacity:1;paint-order:markers fill stroke"
         class="powerclip"
         d="M 22.118965,0.73138091 H 53.368836 V 35.268619 H 22.118965 Z M 27.082771,-7.3269296 V 20.848136 h 5.770962 V -7.3269296 Z" />
    </clipPath>
    <clipPath
       clipPathUnits="userSpaceOnUse"
       id="clipPath26">
      <rect
         style="display:block;fill:#0d5eb1;fill-opacity:1;stroke:none;stroke-width:3.88035;stroke-linecap:butt;stroke-linejoin:miter;stroke-dasharray:none;stroke-opacity:1;paint-order:markers fill stroke"
         id="rect26"
         width="5.7709613"
         height="28.175066"
         x="42.634083"
         y="-7.3269296" />
    </clipPath>
  </defs>
</svg>

<svg width="56" height="36" viewBox="0 0 56 36" fill="none" xmlns="http://www.w3.org/2000/svg">
<g clip-path="url(#clip0_547_122)">
<path d="M0 27.0957L0.0610022 9.76917L9.39434 14.3773L9.33333 22.4261L15.0065 25.5597L13.2375 28.8161L4.81917 25.744L8.17429 31.0894L0 27.0957Z" fill="url(#paint0_linear_547_122)"/>
<path d="M18.0566 35.7591L8.17421 31.0895L4.81909 25.7441L13.2374 28.8162L15.0065 25.5598L18.0566 26.9729L28.1219 22.119L30.196 23.2864L31.477 27.2187L28.0609 31.4581L18.0566 35.7591Z" fill="url(#paint1_linear_547_122)"/>
<path fill-rule="evenodd" clip-rule="evenodd" d="M29.5252 3.80932L37.7605 -6.10352e-05L56.0002 9.46195V27.0957L52.889 28.5089L46.5448 22.1804V13.7629L37.5775 9.40051L35.8084 10.1993L29.5252 3.80932ZM28.0612 5.03815L18.2398 0.491472L10.6755 4.42374L14.5797 9.21619L17.9348 9.89204L28.1832 14.3158L28.0612 5.03815Z" fill="url(#paint2_linear_547_122)"/>
<path fill-rule="evenodd" clip-rule="evenodd" d="M29.464 13.0255L29.525 3.80927L35.8082 10.1992L29.464 13.0255ZM0.0609131 9.7691L10.6753 4.42368L14.5794 9.21613L17.9346 9.89199L9.39425 14.3772L0.0609131 9.7691ZM30.196 23.2863L38.0653 26.9728L46.5446 22.1803L52.8888 28.5088L37.9433 35.6975L28.0609 31.458L31.477 27.2185L30.196 23.2863Z" fill="url(#paint3_linear_547_122)"/>
</g>
<defs>
<linearGradient id="paint0_linear_547_122" x1="7.50327" y1="9.76917" x2="7.50327" y2="31.0894" gradientUnits="userSpaceOnUse">
<stop stop-color="#062455"/>
<stop offset="1" stop-color="#062455"/>
</linearGradient>
<linearGradient id="paint1_linear_547_122" x1="18.1481" y1="22.119" x2="18.1481" y2="35.7591" gradientUnits="userSpaceOnUse">
<stop stop-color="#0D5EB1"/>
<stop offset="1" stop-color="#0D5EB1"/>
</linearGradient>
<linearGradient id="paint2_linear_547_122" x1="33.3378" y1="-6.10352e-05" x2="33.3378" y2="28.5089" gradientUnits="userSpaceOnUse">
<stop stop-color="#D93F64"/>
<stop offset="1" stop-color="#D93F64"/>
</linearGradient>
<linearGradient id="paint3_linear_547_122" x1="26.4749" y1="3.80927" x2="26.4749" y2="35.6975" gradientUnits="userSpaceOnUse">
<stop stop-color="#7E2B6C"/>
<stop offset="1" stop-color="#7E2B6C"/>
</linearGradient>
<clipPath id="clip0_547_122">
<rect width="56" height="35.759" fill="white"/>
</clipPath>
</defs>
</svg>
